components/Common/Svg/svgs/whatsApp.svg

<svg width="40" height="40" viewBox="0 0 40 40" fill="none" xmlns="http://www.w3.org/2000/svg">
<path d="M20.0004 4.0625C17.2214 4.06325 14.4908 4.79045 12.0796 6.17199C9.66828 7.55353 7.66003 9.54141 6.25398 11.9385C4.84793 14.3356 4.09294 17.0586 4.06386 19.8374C4.03479 22.6163 4.73265 25.3545 6.08823 27.7805L4.71714 32.5789C4.6099 32.954 4.60494 33.351 4.70278 33.7287C4.80061 34.1064 4.99768 34.451 5.27355 34.7269C5.54941 35.0028 5.89405 35.1999 6.27173 35.2977C6.64941 35.3956 7.04638 35.3906 7.42151 35.2834L12.2201 33.9123C14.3458 35.101 16.7157 35.7868 19.1477 35.9169C21.5797 36.0471 24.0092 35.6181 26.2497 34.663C28.4901 33.7079 30.4818 32.2521 32.072 30.4073C33.6621 28.5626 34.8083 26.3779 35.4226 24.0211C36.0369 21.6644 36.1029 19.1982 35.6156 16.8119C35.1283 14.4257 34.1006 12.1828 32.6114 10.2556C31.1222 8.32845 29.2112 6.76815 27.0251 5.69457C24.839 4.62098 22.4359 4.06267 20.0004 4.0625ZM20.0004 34.0625C17.4749 34.0642 14.9957 33.3848 12.8239 32.0958C12.714 32.0305 12.592 31.9884 12.4653 31.9719C12.3386 31.9555 12.2098 31.9651 12.087 32.0002L6.90636 33.4803C6.85279 33.4956 6.79611 33.4964 6.74217 33.4824C6.68824 33.4684 6.63902 33.4403 6.59962 33.4009C6.56022 33.3615 6.53207 33.3123 6.51808 33.2584C6.5041 33.2045 6.5048 33.1478 6.52011 33.0942L8.00011 27.9134C8.0352 27.7906 8.04482 27.6619 8.02837 27.5353C8.01193 27.4086 7.96977 27.2867 7.90448 27.1769C6.32056 24.5083 5.66367 21.3909 6.03616 18.3101C6.40865 15.2293 7.7896 12.3582 9.96388 10.1441C12.1382 7.92997 14.9837 6.4971 18.0572 6.06872C21.1307 5.64033 24.2596 6.24048 26.9564 7.77567C29.6533 9.31086 31.7667 11.6949 32.9674 14.5564C34.1682 17.4179 34.3888 20.5962 33.5949 23.5961C32.8011 26.5961 31.0374 29.2492 28.5785 31.1423C26.1196 33.0354 23.1036 34.0621 20.0004 34.0625ZM28.0479 22.6261L24.851 20.7991C24.5136 20.6067 24.131 20.5074 23.7425 20.5116C23.3541 20.5158 22.9737 20.6232 22.6404 20.8228L20.6334 22.027C19.5064 21.4187 18.5818 20.4941 17.9735 19.367L19.1778 17.36C19.3774 17.0267 19.4848 16.6463 19.4889 16.2579C19.4931 15.8694 19.3938 15.4868 19.2012 15.1494L17.3745 11.9525C17.1979 11.6445 16.9433 11.3884 16.6362 11.2102C16.3291 11.032 15.9805 10.9379 15.6254 10.9375C14.2199 10.9379 12.8718 11.4952 11.8761 12.4873C10.8805 13.4793 10.3184 14.8254 10.3129 16.2309C10.3104 17.9972 10.6561 19.7466 11.3303 21.3791C12.0044 23.0116 12.9938 24.4952 14.2418 25.745C15.4898 26.9948 16.972 27.9863 18.6036 28.6628C20.2351 29.3393 21.984 29.6875 23.7503 29.6875H23.7695C25.175 29.682 26.5211 29.1199 27.5132 28.1243C28.5052 27.1286 29.0625 25.7805 29.0629 24.375C29.0625 24.02 28.9684 23.6713 28.7902 23.3643C28.612 23.0572 28.356 22.8026 28.0479 22.6261ZM23.7668 27.8125H23.7504C22.2306 27.8125 20.7258 27.5129 19.3219 26.9308C17.918 26.3487 16.6426 25.4956 15.5687 24.4202C14.4949 23.3448 13.6435 22.0682 13.0634 20.6635C12.4833 19.2588 12.1858 17.7535 12.1879 16.2338C12.192 15.3248 12.556 14.4545 13.2002 13.8133C13.8444 13.1721 14.7165 12.8122 15.6254 12.8125C15.65 12.8125 15.6741 12.819 15.6954 12.8314C15.7167 12.8437 15.7343 12.8615 15.7465 12.8828L17.5732 16.0797C17.6007 16.1279 17.6149 16.1825 17.6143 16.2379C17.6138 16.2934 17.5984 16.3477 17.5699 16.3953L16.1028 18.8406C16.025 18.9703 15.9798 19.1168 15.9709 19.2677C15.962 19.4186 15.9898 19.5695 16.0518 19.7073C16.8988 21.5926 18.408 23.1016 20.2932 23.9486C20.4311 24.0106 20.5819 24.0384 20.7329 24.0295C20.8838 24.0206 21.0303 23.9753 21.16 23.8975L23.6049 22.4306C23.6526 22.4022 23.7069 22.3868 23.7624 22.3862C23.8179 22.3856 23.8726 22.3997 23.9209 22.427L27.1178 24.2541C27.139 24.2663 27.1567 24.2839 27.1691 24.3051C27.1814 24.3264 27.1879 24.3505 27.1879 24.375C27.1882 25.2839 26.8283 26.1559 26.1872 26.8002C25.546 27.4444 24.6757 27.8084 23.7668 27.8125Z" fill="#161616"/>
</svg>

<svg width="40" height="40" viewBox="0 0 40 40" fill="none" xmlns="http://www.w3.org/2000/svg"><path d="M20 4.063A15.941 15.941 0 0 0 6.088 27.78l-1.37 4.798a2.187 2.187 0 0 0 2.704 2.704l4.798-1.37A15.938 15.938 0 1 0 20 4.062Zm0 30a14.042 14.042 0 0 1-7.176-1.967.94.94 0 0 0-.737-.096l-5.18 1.48a.312.312 0 0 1-.387-.386L8 27.914a.937.937 0 0 0-.096-.737A14.064 14.064 0 1 1 20 34.063Zm8.048-11.437L24.85 20.8a2.19 2.19 0 0 0-2.21.024l-2.008 1.204a6.567 6.567 0 0 1-2.66-2.66l1.205-2.007a2.19 2.19 0 0 0 .023-2.21l-1.826-3.197a2.02 2.02 0 0 0-1.75-1.015 5.314 5.314 0 0 0-5.312 5.293A13.437 13.437 0 0 0 23.75 29.687h.02a5.315 5.315 0 0 0 5.293-5.312 2.018 2.018 0 0 0-1.015-1.749Zm-4.281 5.186h-.017a11.562 11.562 0 0 1-11.562-11.578 3.437 3.437 0 0 1 3.437-3.422.139.139 0 0 1 .121.07l1.827 3.198a.312.312 0 0 1-.003.315l-1.467 2.446a.937.937 0 0 0-.051.866 8.443 8.443 0 0 0 4.241 4.242.938.938 0 0 0 .867-.052l2.445-1.466a.315.315 0 0 1 .316-.004l3.197 1.827a.14.14 0 0 1 .07.121 3.437 3.437 0 0 1-3.421 3.438Z" fill="#161616"/></svg>
